X: 186
T: Lost Keys, The
B: canberra pickers and fiddlers
B: old time tunes update
B: tunes
M:4/4
R: barndance
Q: 1/4=100
K:Dm
V:1 
|:efec AGAd-|dc2A BG AC/D/|EFcC EFEC|D F2ABGA|
efec AGAd-|dc2A BG AC/D/|EFcC EFEC|D F2ABGA:|
|:AGAe2Aed-|dB BA/B/ cdBA|GFG A2DAG-|GDFA BGAD|
AGAe2Aed-|dB BA/B/ cdBA|GFG A2DAG-|GDFA BGAG:|
% abcbook-tune_id 67a7d9ec889b88413c638a2a
% abcbook-tune_composer_id 
% abcbook-link-0 https://www.youtube.com/watch?v=J-1J2DCndg8
% abcbook-link-title-0 Clifftop 2024 - Fiddler&#39;s Dream - The Lost Keys
% abcbook-boost 0
% abcbook-difficulty 0
% abcbook-tags old time tunes
% abcbook-tablature 
% abcbook-transpose 2
% abcbook-tuning GDAD
% abcbook-lastupdated 1739178215697
% abcbook-src-url 
% abcbook-soundfonts 
% abcbook-repeats 1
%%MIDI transpose 2


